symbols/web/event_available/materialsymbolsrounded/event_available_wght500grad200_40px.svg

<svg xmlns="http://www.w3.org/2000/svg" height="40" width="40"><path d="M16.833 29.75 13 25.958q-.542-.541-.521-1.229.021-.687.563-1.229.5-.5 1.187-.5.688 0 1.188.5l2.708 2.708 6.375-6.416q.5-.5 1.188-.48.687.021 1.187.563.5.5.5 1.187 0 .688-.5 1.188l-7.458 7.5q-.542.542-1.313.542-.771 0-1.271-.542ZM7.75 37.583q-1.5 0-2.604-1.104t-1.104-2.604V8.833q0-1.541 1.104-2.645Q6.25 5.083 7.75 5.083h1.583v-.875q0-.75.542-1.291.542-.542 1.25-.542.792 0 1.333.542.542.541.542 1.291v.875h14v-.875q0-.75.542-1.291.541-.542 1.291-.542.792 0 1.313.542.521.541.521 1.291v.875h1.583q1.5 0 2.604 1.105 1.104 1.104 1.104 2.645v25.042q0 1.5-1.104 2.604t-2.604 1.104Zm0-3.708h24.5V15.958H7.75v17.917Zm0-21.25h24.5V8.833H7.75Zm0 0V8.833v3.792Z"/></svg>

<svg xmlns="http://www.w3.org/2000/svg" height="40" width="40"><path d="M16.833 29.75 13 25.958Q12.458 25.417 12.479 24.729Q12.5 24.042 13.042 23.5Q13.542 23 14.229 23Q14.917 23 15.417 23.5L18.125 26.208L24.5 19.792Q25 19.292 25.688 19.312Q26.375 19.333 26.875 19.875Q27.375 20.375 27.375 21.062Q27.375 21.75 26.875 22.25L19.417 29.75Q18.875 30.292 18.104 30.292Q17.333 30.292 16.833 29.75ZM7.75 37.583Q6.25 37.583 5.146 36.479Q4.042 35.375 4.042 33.875V8.833Q4.042 7.292 5.146 6.188Q6.25 5.083 7.75 5.083H9.333V4.208Q9.333 3.458 9.875 2.917Q10.417 2.375 11.125 2.375Q11.917 2.375 12.458 2.917Q13 3.458 13 4.208V5.083H27V4.208Q27 3.458 27.542 2.917Q28.083 2.375 28.833 2.375Q29.625 2.375 30.146 2.917Q30.667 3.458 30.667 4.208V5.083H32.25Q33.75 5.083 34.854 6.188Q35.958 7.292 35.958 8.833V33.875Q35.958 35.375 34.854 36.479Q33.75 37.583 32.25 37.583ZM7.75 33.875H32.25Q32.25 33.875 32.25 33.875Q32.25 33.875 32.25 33.875V15.958H7.75V33.875Q7.75 33.875 7.75 33.875Q7.75 33.875 7.75 33.875ZM7.75 12.625H32.25V8.833Q32.25 8.833 32.25 8.833Q32.25 8.833 32.25 8.833H7.75Q7.75 8.833 7.75 8.833Q7.75 8.833 7.75 8.833ZM7.75 12.625V8.833Q7.75 8.833 7.75 8.833Q7.75 8.833 7.75 8.833Q7.75 8.833 7.75 8.833Q7.75 8.833 7.75 8.833V12.625Z"/></svg>
